X: 39107
T: Sweeper's Tune, The
R: waltz
M: 3/4
K: Bminor
f3 B df|a2 fd fd|e3 d cB|AF Ac de|
fe dB df|a2 fd fd|e3 d cB|B4:|
fd A2 df|ed c2 dc|Bc dc de|de f2 ed|
f3 A df|ed c2 dc|B3 f ed|B4:|

